X:15278
T:Shaskeen Reel, The
R:reel
Z:id:hn-reel-435
M:C|
L:1/8
K:G
DG~G2 ABcA|d2fd cAAc|~B3G ~A3F|GBAG FGEF|
DG~G2 ABcA|d2fd cA~A2|f2eg fdcA|1 AGFA ~G3E:|2 AGFA ~G3B||
|:dggf g2fg|abag fddc|~B3G ~A3F|GBAG FDD2|1 dggf g2fg|
abag fdde|f2eg fdcA|AGFA G3B:|2 BG~G2 AF~F2|
dB~B2 cA~A2|f2eg fdcA|AGFA G3E||
